app/assets/img/cat-money.svg

<svg height="60" viewBox="0 0 34 60" width="34" xmlns="http://www.w3.org/2000/svg"><path d="m49.302554 46.3333333c-7.5815324-1.9666666-10.0196463-4-10.0196463-7.1666666 0-3.6333334 3.3732809-6.1666667 9.0176817-6.1666667 5.9449902 0 8.1493124 2.8333333 8.3497053 7h7.3811395c-.2337918-5.7333333-3.740668-11-10.7210216-12.7v-7.3h-10.0196464v7.2c-6.4793713 1.4-11.6895874 5.6-11.6895874 12.0333333 0 7.7 6.3791748 11.5333334 15.697446 13.7666667 8.3497053 2 10.0196463 4.9333333 10.0196463 8.0333333 0 2.3-1.6365422 5.9666667-9.0176817 5.9666667-6.8801572 0-9.5854617-3.0666667-9.9528487-7h-7.3477407c.4007859 7.3 5.8781925 11.4 12.2907662 12.7666667v7.2333333h10.0196464v-7.1666667c6.5127701-1.2333333 11.6895874-5 11.6895874-11.8333333 0-9.4666667-8.1159136-12.7-15.697446-14.6666667z" transform="translate(-31 -20)"/></svg>

<?xml version="1.0" encoding="UTF-8"?>
<svg width="34px" height="60px" viewBox="0 0 34 60" version="1.1" xmlns="http://www.w3.org/2000/svg" xmlns:xlink="http://www.w3.org/1999/xlink">
    <!-- Generator: Sketch 50.2 (55047) - http://www.bohemiancoding.com/sketch -->
    <title>cat-money</title>
    <desc>Created with Sketch.</desc>
    <defs>
        <path d="M49.302554,46.3333333 C41.7210216,44.3666667 39.2829077,42.3333333 39.2829077,39.1666667 C39.2829077,35.5333333 42.6561886,33 48.3005894,33 C54.2455796,33 56.4499018,35.8333333 56.6502947,40 L64.0314342,40 C63.7976424,34.2666667 60.2907662,29 53.3104126,27.3 L53.3104126,20 L43.2907662,20 L43.2907662,27.2 C36.8113949,28.6 31.6011788,32.8 31.6011788,39.2333333 C31.6011788,46.9333333 37.9803536,50.7666667 47.2986248,53 C55.6483301,55 57.3182711,57.9333333 57.3182711,61.0333333 C57.3182711,63.3333333 55.6817289,67 48.3005894,67 C41.4204322,67 38.7151277,63.9333333 38.3477407,60 L31,60 C31.4007859,67.3 36.8781925,71.4 43.2907662,72.7666667 L43.2907662,80 L53.3104126,80 L53.3104126,72.8333333 C59.8231827,71.6 65,67.8333333 65,61 C65,51.5333333 56.8840864,48.3 49.302554,46.3333333 Z" id="path-1"></path>
    </defs>
    <g id="Page-1" stroke="none" stroke-width="1" fill="none" fill-rule="evenodd">
        <g id="askdarcel/icon/category/money" transform="translate(-31.000000, -20.000000)">
            <mask id="mask-2" fill="white">
                <use xlink:href="#path-1"></use>
            </mask>
            <use id="cat-money" fill="#000000" fill-rule="nonzero" xlink:href="#path-1"></use>
        </g>
    </g>
</svg>
